**harmony	**harte	**kern	**silbe	**rhyme	**timestamp	**phrase
*M12/8	*M12/8	*ICvox	*	*	*	*
*	*	*VRlead	*	*	*	*
*	*	*Hstimme	*	*	*	*
*e:	*e:	*e:	*	*	*e:	*e:
*	*	*M12/8	*	*	*	*
*	*	*clefG2	*	*	*	*
1r;	1r	r;	.	.	0	.
1r;	1r	r;	.	.	0.051	.
=1	=1	=1	=1	=1	=1	=1
*>Letter>A	*>Letter>A	*>Letter>A	*>Letter>A	*>Letter>A	*>Letter>A	*>Letter>A
*>Label>Intro	*>Label>Intro	*>Label>Intro	*>Label>Intro	*>Label>Intro	*>Label>Intro	*>Label>Intro
1.Em	E:min	1.r	.	.	2.21	newline
=2	=2	=2	=2	=2	=2	=2
1.Em	E:min	2.r	.	.	5.563	.
.	.	4.r	.	.	.	.
.	.	8r	.	.	.	.
.	.	16r	.	.	.	.
.	.	16B	I	.	.	.
.	.	16e	put	.	.	.
.	.	16e	a	.	.	.
=3	=3	=3	=3	=3	=3	=3
*>Letter>A	*>Letter>A	*>Letter>A	*>Letter>A	*>Letter>A	*>Letter>A	*>Letter>A
*>Label>Verse	*>Label>Verse	*>Label>Verse	*>Label>Verse	*>Label>Verse	*>Label>Verse	*>Label>Verse
1.Em	E:min	16g	spell	.	8.916	newline
.	.	[16e	on	.	.	.
.	.	16e]	_	.	.	.
.	.	[8.e	you	A	.	.
.	.	16e]	_	.	.	.
.	.	16d	_	.	.	.
.	.	16B	_	.	.	.
.	.	16r	.	.	.	.
.	.	8r	.	.	.	.
.	.	2.r	.	.	.	.
=4	=4	=4	=4	=4	=4	=4
1.Am	A:min	2.r	.	.	12.27	.
.	.	8r	.	.	.	.
.	.	16e	Be-	.	.	.
.	.	[8.a	-cause	.	.	.
.	.	8.a]	_	.	.	.
.	.	8.g	you're	.	.	.
=5	=5	=5	=5	=5	=5	=5
1.Em	E:min	8.f#	mine	B	15.625	.
.	.	[8.e	_	.	.	.
.	.	8e]	_	.	.	.
.	.	16d	_	.	.	.
.	.	16B	_	.	.	.
.	.	8r	.	.	.	.
.	.	2.r	.	.	.	.
=6	=6	=6	=6	=6	=6	=6
1.Em	E:min	2.r	.	.	18.979	.
.	.	4.r	.	.	.	.
.	.	8r	.	.	.	.
.	.	16g	You	.	.	.
.	.	16g	bet-	.	.	.
.	.	8g	-ter	.	.	.
=7	=7	=7	=7	=7	=7	=7
1.Am	A:min	8g	stop	.	22.333	newline
.	.	16e	the	.	.	.
.	.	[16e	things	.	.	.
.	.	8e_	_	.	.	.
.	.	8e]	_	.	.	.
.	.	16e	that	.	.	.
.	.	16d	you're	.	.	.
.	.	[8e	do	(A	.	.
.	.	16e]	_	.	.	.
.	.	16d	_	.	.	.
.	.	8c	ing.	a)	.	.
.	.	8r	.	.	.	.
.	.	4.r	.	.	.	.
=8	=8	=8	=8	=8	=8	=8
1.Am	A:min	4.r	.	.	25.642	.
.	.	8r	.	.	.	.
.	.	16r	.	.	.	.
.	.	16g	I	.	.	.
.	.	16g	said,	.	.	.
.	.	16e	a'-	.	.	.
.	.	8g	-watch	.	.	.
.	.	8g	out!	.	.	.
.	.	8r	.	.	.	.
.	.	8r	.	.	.	.
.	.	16r	.	.	.	.
.	.	16B	I	.	.	.
.	.	8B	ain't	.	.	.
=9	=9	=9	=9	=9	=9	=9
1.BMm	B:7	8d#	ly-	(B	28.951	.
.	.	[4B	-ing	b)	.	.
.	.	8B]	.	.	.	.
.	.	8r	.	.	.	.
.	.	8r	.	.	.	.
.	.	2.r	.	.	.	.
=10	=10	=10	=10	=10	=10	=10
1.BMm	B:7	4.r	.	.	32.26	.
.	.	[4.a	Yeah!	.	.	.
.	.	4a]	_	.	.	.
.	.	[8b	_	.	.	.
.	.	4b]	_	.	.	.
.	.	8r	.	.	.	.
=11	=11	=11	=11	=11	=11	=11
1.Em	E:min	4.r	.	.	35.569	newline
.	.	16.b	I	.	.	.
.	.	16.e	ain't	.	.	.
.	.	16.e	gon-	.	.	.
.	.	16.d	-na	.	.	.
.	.	8e	take	.	.	.
.	.	16e	none	.	.	.
.	.	16d	a'-	.	.	.
.	.	8e	-your...	.	.	.
.	.	4.r	.	.	.	.
=12	=12	=12	=12	=12	=12	=12
1.Em	E:min	4.r	.	.	38.816	.
.	.	16.g	foo-	.	.	.
.	.	16.e	-ling	.	.	.
.	.	16.e	a-	.	.	.
.	.	[16.e	-round!	C	.	.
.	.	8e]	_	.	.	.
.	.	16d	_	.	.	.
.	.	16B	_	.	.	.
.	.	8r	.	.	.	.
.	.	4.r	.	.	.	.
=13	=13	=13	=13	=13	=13	=13
1.Am	A:min	4r	.	.	42.063	.
.	.	16r	.	.	.	.
.	.	16e	I	.	.	.
.	.	8.g	ain't	.	.	.
.	.	16.g	gon-	.	.	.
.	.	16.e	-na	.	.	.
.	.	8g	take	.	.	.
.	.	16g	none	.	.	.
.	.	16e	a'-	.	.	.
.	.	[8g	-your	.	.	.
.	.	4.g]	.	.	.	.
=14	=14	=14	=14	=14	=14	=14
1.CM	C:maj	4r	.	.	45.31	.
.	.	16r	.	.	.	.
.	.	16B	a'-	.	.	.
.	.	8g	-put-	.	.	.
.	.	16g	-me-	.	.	.
.	.	16e	-down!	C	.	.
.	.	[8g	_	.	.	.
.	.	16g]	_	.	.	.
.	.	16r	.	.	.	.
.	.	4r	.	.	.	.
.	.	8r	.	.	.	.
.	.	16B	I	.	.	.
.	.	16B	put	.	.	.
.	.	8e	a	.	.	.
=15	=15	=15	=15	=15	=15	=15
1.Em	E:min	16g	spell	.	48.557	newline
.	.	[16e	on	.	.	.
.	.	8e]	_	.	.	.
.	.	[8e	you	A	.	.
.	.	16e]	_	.	.	.
.	.	16d	_	.	.	.
.	.	8B	.	.	.	.
.	.	8r	.	.	.	.
.	.	2.r	.	.	.	.
=16	=16	=16	=16	=16	=16	=16
1.BMm	B:7	2.r	.	.	51.816	.
.	.	8r	.	.	.	.
.	.	32B	Be-	.	.	.
.	.	[16.a	-cause	.	.	.
.	.	8a_	_	.	.	.
.	.	8.a]	_	.	.	.
.	.	8.g	you're	.	.	.
=17	=17	=17	=17	=17	=17	=17
2.Em	E:min	8.f#	mine!	B	55.075	.
.	.	8.e	_	.	.	.
.	.	8r	.	.	.	.
.	.	[4g	Whoa,	.	.	.
2.Am	A:min	8g]	_	.	56.704	.
.	.	8g	al-	.	.	.
.	.	8g	-right!	B	.	.
.	.	4.r	.	.	.	.
=18	=18	=18	=18	=18	=18	=18
1.BMm	B:7	1.r	.	.	58.334	.
=19	=19	=19	=19	=19	=19	=19
*>Letter>A	*>Letter>A	*>Letter>A	*>Letter>A	*>Letter>A	*>Letter>A	*>Letter>A
*>Label>Solo	*>Label>Solo	*>Label>Solo	*>Label>Solo	*>Label>Solo	*>Label>Solo	*>Label>Solo
1.Em	E:min	1.r	.	.	61.593	newline
=20	=20	=20	=20	=20	=20	=20
1.Am	A:min	1.r	.	.	64.801	.
=21	=21	=21	=21	=21	=21	=21
1.Em	E:min	1.r	.	.	68.009	.
=22	=22	=22	=22	=22	=22	=22
1.Em	E:min	1.r	.	.	71.217	.
=23	=23	=23	=23	=23	=23	=23
1.Am	A:min	1.r	.	.	74.425	newline
=24	=24	=24	=24	=24	=24	=24
1.Am	A:min	1.r	.	.	77.64	.
=25	=25	=25	=25	=25	=25	=25
1.BMm	B:7	1.r	.	.	80.855	.
=26	=26	=26	=26	=26	=26	=26
1.BMm	B:7	1.r	.	.	84.071	.
=27	=27	=27	=27	=27	=27	=27
1.Em	E:min	1.r	.	.	87.286	newline
=28	=28	=28	=28	=28	=28	=28
1.Em	E:min	1.r	.	.	90.414	.
=29	=29	=29	=29	=29	=29	=29
1.Am	A:min	1.r	.	.	93.543	.
=30	=30	=30	=30	=30	=30	=30
1.CM	C:maj	1.r	.	.	96.671	.
=31	=31	=31	=31	=31	=31	=31
1.Em	E:min	1.r	.	.	99.8	newline
=32	=32	=32	=32	=32	=32	=32
1.BMm	B:7	1.r	.	.	102.954	.
=33	=33	=33	=33	=33	=33	=33
2.Em	E:min	1.r	.	.	106.109	.
2.Am	A:min	.	.	.	107.687	.
=34	=34	=34	=34	=34	=34	=34
2.BMm	B:7	1.r	.	.	109.264	.
2.CM	C:maj	.	.	.	110.842	.
=35	=35	=35	=35	=35	=35	=35
2.FM	F:maj	1.r	.	.	112.419	newline
2.DM	D:maj	.	.	.	114.014	.
=36	=36	=36	=36	=36	=36	=36
2.GM	G:maj	1.r	.	.	115.608	.
2.AM	A:maj	.	.	.	117.203	.
=37	=37	=37	=37	=37	=37	=37
*>Letter>A	*>Letter>A	*>Letter>A	*>Letter>A	*>Letter>A	*>Letter>A	*>Letter>A
*>Label>Solo	*>Label>Solo	*>Label>Solo	*>Label>Solo	*>Label>Solo	*>Label>Solo	*>Label>Solo
1.Em	E:min	1.r	.	.	118.798	newline
=38	=38	=38	=38	=38	=38	=38
1.Am	A:min	1.r	.	.	121.96	.
=39	=39	=39	=39	=39	=39	=39
1.Em	E:min	1.r	.	.	125.122	.
=40	=40	=40	=40	=40	=40	=40
1.Em	E:min	1.r	.	.	128.285	.
=41	=41	=41	=41	=41	=41	=41
1.Am	A:min	1.r	.	.	131.447	newline
=42	=42	=42	=42	=42	=42	=42
1.Am	A:min	1.r	.	.	134.58	.
=43	=43	=43	=43	=43	=43	=43
1.BMm	B:7	1.r	.	.	137.712	.
=44	=44	=44	=44	=44	=44	=44
1.BMm	B:7	1.r	.	.	140.845	.
=45	=45	=45	=45	=45	=45	=45
1.Em	E:min	1.r	.	.	143.977	newline
=46	=46	=46	=46	=46	=46	=46
1.Em	E:min	1.r	.	.	147.082	.
=47	=47	=47	=47	=47	=47	=47
1.Am	A:min	1.r	.	.	150.187	.
=48	=48	=48	=48	=48	=48	=48
1.CM	C:maj	1.r	.	.	153.292	.
=49	=49	=49	=49	=49	=49	=49
1.Em	E:min	1.r	.	.	156.397	newline
=50	=50	=50	=50	=50	=50	=50
1.BMm	B:7	1.r	.	.	159.536	.
=51	=51	=51	=51	=51	=51	=51
2.Em	E:min	1.r	.	.	162.675	.
2.Am	A:min	.	.	.	164.245	.
=52	=52	=52	=52	=52	=52	=52
2.BMm	B:7	1.r	.	.	165.814	.
2.CM	C:maj	.	.	.	167.384	.
=53	=53	=53	=53	=53	=53	=53
2.FM	F:maj	1.r	.	.	168.953	newline
2.DM	D:maj	.	.	.	170.528	.
=54	=54	=54	=54	=54	=54	=54
2.GM	G:maj	2.r	.	.	172.103	.
2.AM	A:maj	4.r	.	.	173.677	.
.	.	8r	.	.	.	.
.	.	16r	.	.	.	.
.	.	16~e	I	.	.	.
.	.	16e	put	.	.	.
.	.	16e	a	.	.	.
=55	=55	=55	=55	=55	=55	=55
*>Letter>A	*>Letter>A	*>Letter>A	*>Letter>A	*>Letter>A	*>Letter>A	*>Letter>A
*>Label>Verse	*>Label>Verse	*>Label>Verse	*>Label>Verse	*>Label>Verse	*>Label>Verse	*>Label>Verse
1.Em	E:min	16g	spell	.	175.252	newline
.	.	[16e	on	.	.	.
.	.	16e]	_	.	.	.
.	.	[8.e	you	A	.	.
.	.	8e]	_	.	.	.
.	.	16d	_	.	.	.
.	.	[16B	_	.	.	.
.	.	8B_	_	.	.	.
.	.	8.B]	.	.	.	.
.	.	16r	.	.	.	.
.	.	8r	.	.	.	.
.	.	4.r	.	.	.	.
=56	=56	=56	=56	=56	=56	=56
1.Am	A:min	2.r	.	.	178.411	.
.	.	8r	.	.	.	.
.	.	16.r	.	.	.	.
.	.	32e	Be-	.	.	.
.	.	[8a	-cause	.	.	.
.	.	8.a]	_	.	.	.
.	.	8.g	you're	.	.	.
=57	=57	=57	=57	=57	=57	=57
1.Em	E:min	8.f#	mine	B	181.57	.
.	.	[8.e	_	.	.	.
.	.	8e]	_	.	.	.
.	.	16d	_	.	.	.
.	.	16B	_	.	.	.
.	.	8r	.	.	.	.
.	.	2.r	.	.	.	.
=58	=58	=58	=58	=58	=58	=58
1.Em	E:min	2.r	.	.	184.729	.
.	.	4.r	.	.	.	.
.	.	8r	.	.	.	.
.	.	16g	You	.	.	.
.	.	16g	bet-	.	.	.
.	.	8g	-ter	.	.	.
=59	=59	=59	=59	=59	=59	=59
1.Am	A:min	8g	stop	.	187.888	newline
.	.	16e	the	.	.	.
.	.	[16e	things	.	.	.
.	.	8e_	_	.	.	.
.	.	8e]	_	.	.	.
.	.	8e	that	.	.	.
.	.	16d	you're	.	.	.
.	.	[16e	do	(A	.	.
.	.	8e_	_	.	.	.
.	.	16e]	_	.	.	.
.	.	16d	_	.	.	.
.	.	8B	ing.	a)	.	.
.	.	4.r	.	.	.	.
=60	=60	=60	=60	=60	=60	=60
1.Am	A:min	4.r	.	.	191.07	.
.	.	8r	.	.	.	.
.	.	16r	.	.	.	.
.	.	16g	I	.	.	.
.	.	16g	said,	.	.	.
.	.	16e	a'-	.	.	.
.	.	8g	-watch	.	.	.
.	.	4g	out!	.	.	.
.	.	8r	.	.	.	.
.	.	16r	.	.	.	.
.	.	16B	I	.	.	.
.	.	8B	ain't	.	.	.
=61	=61	=61	=61	=61	=61	=61
1.BMm	B:7	8d#	ly-	(B	194.251	.
.	.	[4B	-ing	b)	.	.
.	.	8.B]	.	.	.	.
.	.	16r	.	.	.	.
.	.	8r	.	.	.	.
.	.	2.r	.	.	.	.
=62	=62	=62	=62	=62	=62	=62
1.BMm	B:7	4.r	.	.	197.432	.
.	.	[4.a	Yeah!	.	.	.
.	.	4a]	_	.	.	.
.	.	[8b	_	.	.	.
.	.	4b]	_	.	.	.
.	.	8r	.	.	.	.
=63	=63	=63	=63	=63	=63	=63
1.Em	E:min	4r	.	.	200.613	newline
.	.	16r	.	.	.	.
.	.	16a	I	.	.	.
.	.	8.a#	ain't	.	.	.
.	.	16.e	gon-	.	.	.
.	.	16.d	-na	.	.	.
.	.	8e	take	.	.	.
.	.	16e	none	.	.	.
.	.	16d	a'-	.	.	.
.	.	[8e	-your	.	.	.
.	.	8e]	.	.	.	.
.	.	4r	.	.	.	.
=64	=64	=64	=64	=64	=64	=64
1.Em	E:min	4.r	.	.	203.776	.
.	.	16.g	foo-	.	.	.
.	.	16.e	-ling	.	.	.
.	.	16.e	a-	.	.	.
.	.	[16.e	-round	C	.	.
.	.	8e]	_	.	.	.
.	.	16d	_	.	.	.
.	.	[16B	_	.	.	.
.	.	8B]	_	.	.	.
.	.	4.r	.	.	.	.
=65	=65	=65	=65	=65	=65	=65
1.Am	A:min	4r	.	.	206.939	.
.	.	16r	.	.	.	.
.	.	16e	I	.	.	.
.	.	8.g	ain't	.	.	.
.	.	16.g	gon-	.	.	.
.	.	16.e	-na	.	.	.
.	.	8g	take	.	.	.
.	.	16g	none	.	.	.
.	.	16e	a'-	.	.	.
.	.	[8g	-your	.	.	.
.	.	4.g]	.	.	.	.
=66	=66	=66	=66	=66	=66	=66
1.CM	C:maj	4r	.	.	210.102	.
.	.	16r	.	.	.	.
.	.	16B	a'-	.	.	.
.	.	8g	-put-	.	.	.
.	.	16g	-me-	.	.	.
.	.	64f#	-down!	C	.	.
.	.	32.g	_	.	.	.
.	.	[8g	_	.	.	.
.	.	8g]	_	.	.	.
.	.	4r	.	.	.	.
.	.	8r	.	.	.	.
.	.	16B	I	.	.	.
.	.	16e	put	.	.	.
.	.	8e	a	.	.	.
=67	=67	=67	=67	=67	=67	=67
1.Em	E:min	16g	spell	.	213.265	newline
.	.	[16e	on	.	.	.
.	.	8e]	_	.	.	.
.	.	[8e	you	A	.	.
.	.	8e]	_	.	.	.
.	.	16d	_	.	.	.
.	.	[16B	_	.	.	.
.	.	8B]	_	.	.	.
.	.	2.r	.	.	.	.
=68	=68	=68	=68	=68	=68	=68
1.BMm	B:7	2.r	.	.	216.418	.
.	.	8r	.	.	.	.
.	.	32B	Be-	.	.	.
.	.	[16.a	-cause	.	.	.
.	.	8a_	_	.	.	.
.	.	8.a]	_	.	.	.
.	.	8.g	you're	.	.	.
=69	=69	=69	=69	=69	=69	=69
2.Em	E:min	8.f#	mine!	B	219.571	.
.	.	8.e	_	.	.	.
.	.	8r	.	.	.	.
.	.	[4g	Oh,	.	.	.
2.Am	A:min	8g]	_	.	221.148	.
.	.	8g	_	.	.	.
.	.	[8g	_	.	.	.
.	.	16g]	_	.	.	.
.	.	[16g	_	.	.	.
.	.	8g]	_	.	.	.
.	.	8r	.	.	.	.
=70	=70	=70	=70	=70	=70	=70
2.BMm	B:7	1.r	.	.	222.724	.
2.CM	C:maj	.	.	.	224.301	.
=71	=71	=71	=71	=71	=71	=71
2.FM	F:maj	1.r	.	.	225.877	newline
2.DM	D:maj	.	.	.	227.886	.
=72	=72	=72	=72	=72	=72	=72
2.GM	G:maj	1.r	.	.	229.895	.
2.AM	A:maj	.	.	.	231.234	.
=73	=73	=73	=73	=73	=73	=73
1.Em	E:min	1.r	.	.	233.913	newline
1r;	1r	r;	.	.	245.827	.
1r;	1r	r;	.	.	252.989	.
1r;	1r	r;	.	.	254.276	.
*-	*-	*-	*-	*-	*-	*-
!!!BillboardChartDate: 1968/11/16
!!!BillboardPeak: 58
!!!BillboardWeeksOnChart: 9
!!!COC: Creedence Clearwater Revival
!!!ENC: Nathaniel Condit-Schultz
!!!EST: Awating manual error checking and editing.
!!!OTL: I Put A Spell On You
!!!RDF**chordsym: original McGill chord annotation + (implied pitch class set, with bass pitch in first position)
!!!RDF**harmony: **recip + pitch class of root + harmonic quality
!!!RDF**leadinstrument: original McGill primary instrumentation annotation
!!!RDF**phrase: newline = linebreak in original McGill transcription
!!!RDF**timestamp: McGill audio timestamp in seconds
!!!RDT: 2017/01/12/
!!!SampleActualRank: 96
!!!SampleID#: 0061
!!!SampleTargetRank: 95
!!!MBID: 214f85d2-e95c-4c45-9aa6-e57fc84d3e2c